X: 3
T: Blink
T: Tuatha De Danann 
M: 4/4
L: 1/8
R: reel
K: Edor
|:B3 E GEGA | Be-ed z2 BA | FAAG FDDF | Adff edBA |
FABE GEGA | Be-ed z2 BA | ABde fedf |[1 edBA BEEE :|[2 edBA B2cd ||
|: eeed cBcd | egfd edBG | d3 A ADAB | dfed BAGB |
deed cAcd | egfd eeeB | dddd- defe |[1 dBAF BEEE :|2 dBAF B4 |]
